X:15
T:Road to Glountane, The
R:highland
C:Terry "Cuz" Teehan
Z:id:hn-hf-15
M:C|
L:1/8
K:A
E2EF A2AB|ceec BAF2|(3faf ec ABBA|ecBA FBAF|
E2EF A2AB|ceec BAF2|(3faf ec ABBA|1 ecBc A2AF:|2 ecBc A2af||
|:ecef a3f|ecBA FAAB|cBBA cBBA|cABA FAaf|
ecef a3f|ecBA FAAB|cBBA cBBA|1 ceBc A2af:|2 ceBc A2AF||

